X: 24
T: Our God, Our Help in Ages Past
M: 4/4 % time signature
L: 1/4 % default length
%%staves (S1V1 S1V2) | (S2V1 S2V2) 
V: S1V1 clef=treble 
%%MIDI beat 127 125 110 1
V: S1V2 
%%MIDI beat 127 125 110 1
V: S2V1 clef=bass 
%%MIDI beat 127 125 110 1
V: S2V2 
%%MIDI beat 127 125 110 1
K: C % key signature
%
%%MIDI program 1 0 % Piano 1
%%MIDI program 2 0 % Piano 1
%%MIDI program 3 0 % Piano 1
%%MIDI program 4 0 % Piano 1
%
% 1
[V: S1V1] [Q:1/4=100] G | E A G c | c B c G | c G A ^F | G3
w: 1.~Our God, our help in a- ges past, Our hope for years to come, 
w: 2.~Un- der the sha- dow of thy throne thy saints have dwelt se- cure; 
w: 3.~Be- fore the hills in or- der stood, Or earth re- ceived her frame, 
w: 4.~Thy Word com- mands our flesh to dust, 'Re- turn, ye sons of men:' 
w: 5.~A thou- sand a- ges in thy sight Are like an eve- ning gone; 
[V: S1V2]  C | C C C E | D D E E | E E E D | D3
[V: S2V1]  E, | G, A, C C | A, G, G, C | C B, A, A, | B,3
[V: S2V2]  C, | C, F, E, A, | F, G, C, C, | A,, E, C, D, | G,,3
% 5
[V: S1V1]  B | c A d B | c A B !sintro!G | A c d B | c3 !eintro!|]
w: Our shel- ter from the storm- y blast, And our e- ter- nal home. 
w: Suf- fic- ient is thine arm a- lone, And our de- fence is sure. 
w: From ev- er- last- ing thou art God, To end- less years the same. 
w: All na- tions rose from earth at first, And turn to earth a- gain. 
w: Short as the watch that ends the night Be- fore the ris- ing sun. 
[V: S1V2]  D | E C F D | E3/2 D/ B, C | F E D D | E3 |]
[V: S2V1]  G, | G, A, A, G, | G, A, ^G, =G, | F, G, A, G, | G,3 |]
[V: S2V2]  G, | C, F, D, G, | C, F, E, E, | D, C, F, G, | C,3 |]
% 11
W: 6.The busy tribes of flesh and blood,
W: With all their lives and cares,
W: Are carried downwards by the flood,
W: And lost in following years.
W:  
W: 7.Time, like an ever rolling stream,
W: Bears all its sons away;
W: They fly, forgotten, as a dream
W: Dies at the opening day.
W:  
W: 8.Like flowery fields the nations stand
W: Pleased with the morning light;
W: The flowers beneath the mower's hand
W: Lie withering ere 'tis night.
W:  
W: 9.Our God, our help in ages past,
W: Our hope for years to come,
W: Be thou our guard while troubles last,
W: And our eternal home.

